svg/300/outlined/view_array-fill.svg

<svg xmlns="http://www.w3.org/2000/svg" width="48" height="48" viewBox="0 -960 960 960"><path d="M140.001-266.155v-427.69q0-19.231 13.509-32.692 13.509-13.462 32.808-13.462 19.298 0 32.645 13.462 13.346 13.461 13.346 32.692v427.69q0 19.231-13.509 32.692-13.509 13.462-32.808 13.462-19.298 0-32.644-13.462-13.347-13.461-13.347-32.692Zm200.769 46.154q-19.231 0-32.692-13.462-13.462-13.461-13.462-32.692v-427.69q0-19.231 13.462-32.692 13.461-13.462 32.692-13.462h278.46q19.231 0 32.692 13.462 13.462 13.461 13.462 32.692v427.69q0 19.231-13.462 32.692-13.461 13.462-32.692 13.462H340.77Zm386.921-46.154v-427.69q0-19.231 13.509-32.692 13.509-13.462 32.808-13.462 19.298 0 32.644 13.462 13.347 13.461 13.347 32.692v427.69q0 19.231-13.509 32.692-13.509 13.462-32.808 13.462-19.298 0-32.645-13.462-13.346-13.461-13.346-32.692Z"/></svg>

<svg xmlns="http://www.w3.org/2000/svg" width="48" height="48" viewBox="0 -960 960 960"><path d="M140-266.16v-427.68q0-19.24 13.51-32.7Q167.02-740 186.32-740q19.3 0 32.64 13.46 13.35 13.46 13.35 32.7v427.68q0 19.24-13.51 32.7Q205.29-220 185.99-220q-19.3 0-32.64-13.46Q140-246.92 140-266.16ZM340.77-220q-19.23 0-32.69-13.46-13.46-13.46-13.46-32.7v-427.68q0-19.24 13.46-32.7Q321.54-740 340.77-740h278.46q19.23 0 32.69 13.46 13.46 13.46 13.46 32.7v427.68q0 19.24-13.46 32.7Q638.46-220 619.23-220H340.77Zm386.92-46.16v-427.68q0-19.24 13.51-32.7Q754.71-740 774.01-740q19.3 0 32.64 13.46Q820-713.08 820-693.84v427.68q0 19.24-13.51 32.7Q792.98-220 773.68-220q-19.3 0-32.64-13.46-13.35-13.46-13.35-32.7Z"/></svg>
